svg/fluentui-system-icons/ic_fluent_clear_formatting_16_filled.svg

<svg width="16" height="16" viewBox="0 0 16 16" fill="none" xmlns="http://www.w3.org/2000/svg">
<path d="M2.95825 2C2.6141 2 2.31411 2.23422 2.23064 2.5681L1.99453 3.51254C1.89407 3.91439 2.13839 4.32159 2.54024 4.42205C2.94209 4.52251 3.34929 4.27819 3.44975 3.87635L3.54383 3.5H5.56756L4.34256 10.5H3.95531C3.5411 10.5 3.20531 10.8358 3.20531 11.25C3.20531 11.6642 3.5411 12 3.95531 12H6.02242C6.00758 11.8353 6 11.6685 6 11.5C6 11.159 6.03104 10.8252 6.09045 10.5013C6.07582 10.5004 6.06108 10.5 6.04624 10.5H5.86536L7.09036 3.5H9.31711L9.31398 3.51254C9.21352 3.91439 9.45784 4.32159 9.85968 4.42205C10.2615 4.52251 10.6687 4.27819 10.7692 3.87635L11.0053 2.9319C11.0613 2.70785 11.011 2.47048 10.8688 2.28844C10.7267 2.1064 10.5086 2 10.2777 2H2.95825ZM1.75 12.5H6.09069C6.18814 13.0306 6.36173 13.5345 6.59971 14H1.75C1.33579 14 1 13.6642 1 13.25C1 12.8358 1.33579 12.5 1.75 12.5ZM16 11.5C16 13.9853 13.9853 16 11.5 16C9.01472 16 7 13.9853 7 11.5C7 9.01472 9.01472 7 11.5 7C13.9853 7 16 9.01472 16 11.5ZM13.3536 10.3536C13.5488 10.1583 13.5488 9.84171 13.3536 9.64645C13.1583 9.45118 12.8417 9.45118 12.6464 9.64645L11.5 10.7929L10.3536 9.64645C10.1583 9.45118 9.84171 9.45118 9.64645 9.64645C9.45118 9.84171 9.45118 10.1583 9.64645 10.3536L10.7929 11.5L9.64645 12.6464C9.45118 12.8417 9.45118 13.1583 9.64645 13.3536C9.84171 13.5488 10.1583 13.5488 10.3536 13.3536L11.5 12.2071L12.6464 13.3536C12.8417 13.5488 13.1583 13.5488 13.3536 13.3536C13.5488 13.1583 13.5488 12.8417 13.3536 12.6464L12.2071 11.5L13.3536 10.3536Z" fill="#212121"/>
</svg>

<svg xmlns="http://www.w3.org/2000/svg" width="16" height="16"><path d="M2.958 2a.75.75 0 0 0-.727.568l-.236.945a.75.75 0 0 0 1.455.363l.094-.376h2.024l-1.225 7h-.388a.75.75 0 0 0 0 1.5h2.067a5.571 5.571 0 0 1 .068-1.499.72.72 0 0 0-.044-.001h-.18l1.224-7h2.227l-.003.013a.75.75 0 0 0 1.455.363l.236-.944A.75.75 0 0 0 10.278 2h-7.32ZM1.75 12.5h4.34A5.46 5.46 0 0 0 6.6 14H1.75a.75.75 0 0 1 0-1.5Zm14.25-1a4.5 4.5 0 1 1-9 0 4.5 4.5 0 0 1 9 0Zm-2.646-1.146a.5.5 0 0 0-.708-.708L11.5 10.793l-1.146-1.147a.5.5 0 0 0-.708.708l1.147 1.146-1.147 1.146a.5.5 0 0 0 .708.708l1.146-1.147 1.146 1.147a.5.5 0 0 0 .708-.708L12.207 11.5l1.147-1.146Z"/></svg>
